!!!OTL: ICH LEGTE MICH NIEDER
!!!ARE: Europa, Mitteleuropa, Deutschland, Ober - Lahnkreis, Niedertiefenbach
!!!SCT: E0205B
!!!YEM: Copyright 1995, estate of Helmut Schaffrath.
**kern
*ICvox
*Ivox
*M3/4
*k[f#]
*G:
=1
{4d
4g
4b
=2
4a
4g
4f#}
=3
{8a
8b
4cc
4b
=4
2a}
{8b
8cc
=5
8dd
8ee
4dd
4cc
=6
4b
4a
4g}
=7
{8cc
8cc
4b
4a
=8
2g}
{8b
8cc
=9
8dd
8ee
4dd
4cc
=10
4b
4a
4g}
=11
{8cc
8cc
4b
4a
=12
2.g}
==
!!!AGN: erzaehlendes Volks - Lied, Todes - Ahnung; betrogene Liebe
!!!ONB: ESAC (Essen Associative Code) Database: ERK1
!!!AMT: simple triple
!!!AIN: vox
!!!EED: Helmut Schaffrath
!!!EEV: 1.0
*-
